fs/emoji_sparkle_48_regular.svg

<svg viewBox="0 0 48 48" fill="none" xmlns="http://www.w3.org/2000/svg" height="1em" width="1em">
  <path d="M32.3906 11.6085C32.549 11.7674 32.6968 11.9356 32.8334 12.1121C33.2053 12.5925 33.4937 13.134 33.6848 13.714L34.5306 16.3145C34.6013 16.515 34.7326 16.6885 34.9062 16.8113C35.0798 16.9341 35.2873 17 35.5 17C35.7127 17 35.9202 16.9341 36.0938 16.8113C36.2487 16.7018 36.3699 16.5518 36.4444 16.3784C36.4535 16.3575 36.4618 16.3362 36.4694 16.3145L37.3152 13.714C37.5783 12.9234 38.0222 12.205 38.6118 11.6159C39.2013 11.0268 39.9203 10.5832 40.7115 10.3204L43.314 9.47519C43.5146 9.40448 43.6883 9.27334 43.8112 9.09985C43.934 8.92635 44 8.71904 44 8.5065C44 8.29396 43.934 8.08665 43.8112 7.91316C43.6883 7.73966 43.5146 7.60852 43.314 7.53781L43.262 7.52481L40.6595 6.67964C39.8682 6.41683 39.1493 5.97324 38.5597 5.38412C37.9701 4.79499 37.5262 4.07658 37.2632 3.28598L36.4174 0.685467C36.3466 0.485033 36.2154 0.311468 36.0417 0.188699C35.8681 0.0659289 35.6607 0 35.448 0C35.2352 0 35.0278 0.0659289 34.8542 0.188699C34.6805 0.311468 34.5493 0.485033 34.4785 0.685467L33.6327 3.28598L33.6111 3.35036C33.3509 4.11012 32.923 4.802 32.3588 5.37459C31.7786 5.96332 31.0701 6.40998 30.2885 6.67964L27.686 7.52481C27.4854 7.59552 27.3117 7.72666 27.1888 7.90016C27.066 8.07365 27 8.28096 27 8.4935C27 8.70604 27.066 8.91335 27.1888 9.08684C27.3117 9.26034 27.4854 9.39148 27.686 9.46219L30.2885 10.3074C31.0811 10.5715 31.801 11.017 32.3906 11.6085ZM46.2315 18.5363L47.6093 18.9837L47.6368 18.9906C47.743 19.028 47.835 19.0975 47.9 19.1893C47.9651 19.2812 48 19.3909 48 19.5034C48 19.616 47.9651 19.7257 47.9 19.8176C47.835 19.9094 47.743 19.9788 47.6368 20.0163L46.259 20.4637C45.8402 20.6029 45.4595 20.8377 45.1474 21.1496C44.8353 21.4615 44.6003 21.8418 44.461 22.2604L44.0132 23.6371C44.0085 23.6506 44.0032 23.6638 43.9974 23.6768C43.9975 23.6797 43.9975 23.6826 43.9976 23.6855C43.958 23.7754 43.8946 23.8531 43.8141 23.9101C43.7222 23.9751 43.6124 24.01 43.4998 24.01C43.3873 24.01 43.2775 23.9751 43.1856 23.9101C43.0937 23.845 43.0243 23.7531 42.9868 23.647L42.5388 22.27C42.3997 21.8505 42.1645 21.4694 41.852 21.1569C41.6536 20.9585 41.4276 20.7913 41.1816 20.66C41.1807 20.6549 41.1797 20.6499 41.1787 20.6448C41.0387 20.5702 40.8924 20.5073 40.741 20.4568L39.3632 20.0094C39.257 19.972 39.165 19.9025 39.1 19.8107C39.0349 19.7188 39 19.6091 39 19.4966C39 19.384 39.0349 19.2743 39.1 19.1824C39.165 19.0906 39.257 19.0212 39.3632 18.9837L40.741 18.5363C41.1547 18.3935 41.5299 18.1571 41.837 17.8454C42.1441 17.5337 42.375 17.1553 42.5114 16.7396L42.9592 15.3629C42.9967 15.2568 43.0662 15.1649 43.1581 15.0999C43.25 15.0349 43.3598 15 43.4724 15C43.5851 15 43.6949 15.0349 43.7868 15.0999C43.8787 15.1649 43.9482 15.2568 43.9857 15.3629L44.4335 16.7396C44.5727 17.1582 44.8077 17.5385 45.1199 17.8504C45.432 18.1623 45.8126 18.3971 46.2315 18.5363ZM25.6822 6.57981C25.1286 6.52701 24.5675 6.5 24 6.5C14.335 6.5 6.5 14.335 6.5 24C6.5 33.665 14.335 41.5 24 41.5C33.3317 41.5 40.9574 34.1961 41.4723 24.9932C41.6291 25.2006 41.8174 25.3843 42.0318 25.537C42.3534 25.7642 42.7232 25.9137 43.1123 25.9736C43.3755 26.0142 43.6427 26.013 43.9041 25.9709C42.9142 36.0915 34.3807 44 24 44C12.9543 44 4 35.0457 4 24C4 12.9543 12.9543 4 24 4C25.9475 4 27.83 4.27835 29.6098 4.79745L27.0678 5.623C26.5239 5.80574 26.0441 6.13801 25.6822 6.57981ZM20 19.5C20 20.8807 18.8807 22 17.5 22C16.1193 22 15 20.8807 15 19.5C15 18.1193 16.1193 17 17.5 17C18.8807 17 20 18.1193 20 19.5ZM30.5 22C31.8807 22 33 20.8807 33 19.5C33 18.1193 31.8807 17 30.5 17C29.1193 17 28 18.1193 28 19.5C28 20.8807 29.1193 22 30.5 22ZM18.4519 34.6812C20.1644 35.5709 22.07 36.0239 23.9996 36C25.9292 36.0239 27.8349 35.5709 29.5473 34.6812C31.2597 33.7915 32.7259 32.4926 33.8156 30.9C33.9889 30.6177 34.043 30.2781 33.9659 29.9559C33.8888 29.6337 33.6869 29.3553 33.4046 29.182C33.1223 29.0087 32.7827 28.9546 32.4605 29.0317C32.1383 29.1088 31.8599 29.3107 31.6866 29.593C30.8212 30.8219 29.6683 31.8203 28.3284 32.5013C26.9885 33.1823 25.5024 33.5252 23.9996 33.5C22.4969 33.5246 21.011 33.1815 19.6712 32.5005C18.3315 31.8196 17.1784 30.8214 16.3126 29.593C16.2268 29.4532 16.1143 29.3317 15.9815 29.2354C15.8487 29.1391 15.6983 29.0699 15.5387 29.0317C15.3792 28.9935 15.2137 28.9872 15.0517 29.0129C14.8897 29.0387 14.7344 29.0962 14.5946 29.182C14.4548 29.2678 14.3333 29.3803 14.237 29.5131C14.1407 29.6459 14.0715 29.7963 14.0333 29.9559C13.9951 30.1154 13.9888 30.2809 14.0146 30.4429C14.0403 30.6049 14.0978 30.7602 14.1836 30.9C15.2733 32.4926 16.7395 33.7915 18.4519 34.6812Z" fill="#212121"/>
</svg>

<svg viewBox="0 0 48 48" fill="none" xmlns="http://www.w3.org/2000/svg" height="1em" width="1em">
  <path d="M32.39 11.608a5.36 5.36 0 0 1 1.295 2.106l.846 2.6a1.027 1.027 0 0 0 1.938 0l.846-2.6a5.357 5.357 0 0 1 3.397-3.394l2.602-.845a1.028 1.028 0 0 0 0-1.937l-.052-.013-2.602-.845a5.362 5.362 0 0 1-3.397-3.394l-.846-2.6a1.027 1.027 0 0 0-1.939 0l-.845 2.6-.022.064a5.357 5.357 0 0 1-3.322 3.33l-2.603.845a1.028 1.028 0 0 0 0 1.937l2.602.845a5.36 5.36 0 0 1 2.103 1.301Zm13.841 6.928 1.378.448.028.007a.544.544 0 0 1 0 1.025l-1.378.448a2.84 2.84 0 0 0-1.798 1.796l-.448 1.377a.504.504 0 0 1-.016.04v.009a.544.544 0 0 1-1.01-.039l-.448-1.377a2.837 2.837 0 0 0-1.357-1.61l-.003-.015a2.844 2.844 0 0 0-.438-.188l-1.378-.448a.544.544 0 0 1 0-1.025l1.378-.448a2.839 2.839 0 0 0 1.77-1.796l.448-1.377a.544.544 0 0 1 1.027 0l.448 1.377a2.834 2.834 0 0 0 1.797 1.796ZM25.682 6.58A17.714 17.714 0 0 0 24 6.5C14.335 6.5 6.5 14.335 6.5 24S14.335 41.5 24 41.5c9.332 0 16.957-7.304 17.472-16.507a2.543 2.543 0 0 0 2.432.978C42.914 36.09 34.381 44 24 44 12.954 44 4 35.046 4 24S12.954 4 24 4c1.948 0 3.83.278 5.61.797l-2.542.826a3.045 3.045 0 0 0-1.386.957ZM20 19.5a2.5 2.5 0 1 1-5 0 2.5 2.5 0 0 1 5 0ZM30.5 22a2.5 2.5 0 1 0 0-5 2.5 2.5 0 0 0 0 5ZM18.452 34.681A11.718 11.718 0 0 0 24 36a11.718 11.718 0 0 0 9.816-5.1 1.249 1.249 0 1 0-2.13-1.307A9.212 9.212 0 0 1 24 33.5a9.22 9.22 0 0 1-7.687-3.907 1.248 1.248 0 1 0-2.13 1.307 11.718 11.718 0 0 0 4.269 3.781Z" fill="#212121"/>
</svg>
